lib/brands/icons/amazon-alexa.svg

<svg xmlns="http://www.w3.org/2000/svg" fill="none" aria-hidden="true" viewBox="0 0 48 48"><g id="amazon-alexa-Icon"><path id="Vector" fill="#5FCAF4" fill-rule="evenodd" d="M23.991 6C14.0549 6 6 14.0591 6 24.0001C6 33.1276 12.7903 40.667 21.5923 41.8405V38.2136C21.5923 37.1907 20.9476 36.2716 19.9786 35.9462C14.9 34.2394 11.2669 29.3829 11.4008 23.6965C11.5637 16.7736 17.2 11.3308 24.1208 11.4006C31.0162 11.4704 36.5848 17.0846 36.5848 24.0001C36.5848 24.1577 36.5809 24.3146 36.5751 24.4705L36.5713 24.5758C36.5647 24.7204 36.5557 24.8648 36.5443 25.0091C36.541 25.0548 36.5364 25.1005 36.5323 25.1462C36.5135 25.3591 36.4889 25.5715 36.4586 25.7831C36.4517 25.8342 36.4446 25.8855 36.437 25.9364C34.895 36.0982 21.6663 41.8095 21.5938 41.8409C22.3782 41.9452 23.1783 42 23.991 42C33.927 42 41.9821 33.9413 41.9821 24.0001C41.9821 14.0591 33.9272 6 23.991 6Z" clip-rule="evenodd"/></g></svg>

<svg xmlns="http://www.w3.org/2000/svg" fill="none" aria-hidden="true" viewBox="0 0 48 48"><path fill="#5FCAF4" fill-rule="evenodd" d="M23.991 6C14.055 6 6 14.06 6 24c0 9.128 6.79 16.667 15.592 17.84v-3.626a2.386 2.386 0 0 0-1.613-2.268c-5.079-1.707-8.712-6.563-8.578-12.25a12.552 12.552 0 0 1 12.72-12.295c6.895.07 12.464 5.684 12.464 12.6 0 .157-.004.314-.01.47l-.004.105c-.006.144-.015.289-.027.433-.003.046-.008.091-.012.137a11.842 11.842 0 0 1-.095.79c-1.542 10.162-14.77 15.873-14.843 15.905a18.22 18.22 0 0 0 2.397.159c9.936 0 17.991-8.059 17.991-18 0-9.94-8.055-18-17.991-18Z" clip-rule="evenodd"/></svg>
